X: 05012
T: BLOOD'S REEL
C: Bob McQuillen 24 Sept'80
B: Bob's Note Book 5 #12
%R: reel
Z: 2021 John Chambers <jc:trillian.mit.edu>
M: C
L: 1/8
K: G
B,C \
| DB,DE DEGA | BGAB G2B,C | DB,DE DGBe | dBGB A2GF |\
| EGcE DGBd | cBAG FEDC | B,DGB cAFG | A2G2 G2 :|
|: Bc \
| dBde dBge | dedB d2Bc | dBde dBGA | Beed e2GA |\
| BcBG ABGA | Beed efge | dedB cedc | B2G2 G2 :|
%%begintext align
%% From Putney,
%% Vt., comes a fine fiddler, caller, and a
%% most enthusiastic dancer, and so here
%% is your tune, Alan - I hope you like it --
%%endtext
